Newaita/actions/16/zoom-1-to-2.svg

<svg height="16" viewBox="0 0 16 16" width="16" xmlns="http://www.w3.org/2000/svg"><g fill="#424242"><path d="m6.945312 10.058594c.078126 0 .152344-.027344.210938-.078125l1.984375-1.652344c.164063-.136719.164063-.390625 0-.527344l-1.984375-1.652343c-.222656-.1875-.5625-.027344-.5625.261718v3.308594c0 .191406.160156.347656.351562.339844zm0 0"/><path d="m10.996094 4.425781h.496094c.230468 0 .414062.148438.414062.328125v6.617188c0 .183594-.183594.332031-.414062.332031h-.496094c-.226563 0-.410156-.148437-.410156-.332031v-6.617188c0-.179687.183593-.328125.410156-.328125zm0 0"/><path d="m4.382812 6.078125h.496094c.226563 0 .414063.148437.414063.332031v3.308594c0 .179688-.1875.328125-.414063.328125h-.496094c-.230468 0-.414062-.148437-.414062-.328125v-3.308594c0-.183594.183594-.332031.414062-.332031zm0 0"/><path d="m2.644531 1.449219c-.730469 0-1.320312.589843-1.320312 1.320312v2.648438h1.320312v-1.984375c0-.367188.296875-.664063.664063-.664063h1.984375v-1.320312zm7.941407 0v1.320312h1.984374c.363282 0 .660157.296875.660157.664063v1.984375h1.324219v-2.648438c0-.730469-.589844-1.320312-1.324219-1.320312zm-9.261719 9.261719v2.644531c0 .734375.589843 1.324219 1.320312 1.324219h2.648438v-1.324219h-1.984375c-.367188 0-.664063-.296875-.664063-.660157v-1.984374zm11.90625 0v1.984374c0 .363282-.296875.660157-.660157.660157h-1.984374v1.324219h2.644531c.734375 0 1.324219-.589844 1.324219-1.324219v-2.644531zm0 0"/></g></svg>

<svg xmlns="http://www.w3.org/2000/svg" xmlns:xlink="http://www.w3.org/1999/xlink" width="16px" height="16px" viewBox="0 0 16 16" version="1.1">
<g id="surface1">
     <defs>
  <style id="current-color-scheme" type="text/css">
   .ColorScheme-Text { color:#424242; } .ColorScheme-Highlight { color:#eeeeee; }
  </style>
 </defs>
<path style="fill:currentColor" class="ColorScheme-Text" d="M 6.945312 10.058594 C 7.023438 10.058594 7.097656 10.03125 7.15625 9.980469 L 9.140625 8.328125 C 9.304688 8.191406 9.304688 7.9375 9.140625 7.800781 L 7.15625 6.148438 C 6.933594 5.960938 6.59375 6.121094 6.59375 6.410156 L 6.59375 9.71875 C 6.59375 9.910156 6.753906 10.066406 6.945312 10.058594 Z M 6.945312 10.058594 "/>
     <defs>
  <style id="current-color-scheme" type="text/css">
   .ColorScheme-Text { color:#424242; } .ColorScheme-Highlight { color:#eeeeee; }
  </style>
 </defs>
<path style="fill:currentColor" class="ColorScheme-Text" d="M 10.996094 4.425781 L 11.492188 4.425781 C 11.722656 4.425781 11.90625 4.574219 11.90625 4.753906 L 11.90625 11.371094 C 11.90625 11.554688 11.722656 11.703125 11.492188 11.703125 L 10.996094 11.703125 C 10.769531 11.703125 10.585938 11.554688 10.585938 11.371094 L 10.585938 4.753906 C 10.585938 4.574219 10.769531 4.425781 10.996094 4.425781 Z M 10.996094 4.425781 "/>
     <defs>
  <style id="current-color-scheme" type="text/css">
   .ColorScheme-Text { color:#424242; } .ColorScheme-Highlight { color:#eeeeee; }
  </style>
 </defs>
<path style="fill:currentColor" class="ColorScheme-Text" d="M 4.382812 6.078125 L 4.878906 6.078125 C 5.105469 6.078125 5.292969 6.226562 5.292969 6.410156 L 5.292969 9.71875 C 5.292969 9.898438 5.105469 10.046875 4.878906 10.046875 L 4.382812 10.046875 C 4.152344 10.046875 3.96875 9.898438 3.96875 9.71875 L 3.96875 6.410156 C 3.96875 6.226562 4.152344 6.078125 4.382812 6.078125 Z M 4.382812 6.078125 "/>
     <defs>
  <style id="current-color-scheme" type="text/css">
   .ColorScheme-Text { color:#424242; } .ColorScheme-Highlight { color:#eeeeee; }
  </style>
 </defs>
<path style="fill:currentColor" class="ColorScheme-Text" d="M 2.644531 1.449219 C 1.914062 1.449219 1.324219 2.039062 1.324219 2.769531 L 1.324219 5.417969 L 2.644531 5.417969 L 2.644531 3.433594 C 2.644531 3.066406 2.941406 2.769531 3.308594 2.769531 L 5.292969 2.769531 L 5.292969 1.449219 Z M 10.585938 1.449219 L 10.585938 2.769531 L 12.570312 2.769531 C 12.933594 2.769531 13.230469 3.066406 13.230469 3.433594 L 13.230469 5.417969 L 14.554688 5.417969 L 14.554688 2.769531 C 14.554688 2.039062 13.964844 1.449219 13.230469 1.449219 Z M 1.324219 10.710938 L 1.324219 13.355469 C 1.324219 14.089844 1.914062 14.679688 2.644531 14.679688 L 5.292969 14.679688 L 5.292969 13.355469 L 3.308594 13.355469 C 2.941406 13.355469 2.644531 13.058594 2.644531 12.695312 L 2.644531 10.710938 Z M 13.230469 10.710938 L 13.230469 12.695312 C 13.230469 13.058594 12.933594 13.355469 12.570312 13.355469 L 10.585938 13.355469 L 10.585938 14.679688 L 13.230469 14.679688 C 13.964844 14.679688 14.554688 14.089844 14.554688 13.355469 L 14.554688 10.710938 Z M 13.230469 10.710938 "/>
</g>
</svg>
